src/main/resources/icons/AllIcons/actions/realIntentionBulb_dark.svg

<!-- Copyright 2000-2021 JetBrains s.r.o. Use of this source code is governed by the Apache 2.0 license that can be found in the LICENSE file. -->
<svg xmlns="http://www.w3.org/2000/svg" width="16" height="16" viewBox="0 0 16 16">
  <g fill="none" fill-rule="evenodd">
    <path fill="#AFB1B3" d="M13.108434 7.96199965L11.0380163 5.89158197 6 10.9013923 6 12.97181 8.07041768 12.97181 13.108434 7.96199965zM14.8337821 6.23665158C15.055406 6.01500638 15.055406 5.42308794 14.8337821 5.20144274L13.7985732 4.1662339C13.5769494 3.9445887 12.9849883 3.9445887 12.7633644 4.1662339L11.7281556 5.20144274 13.7985732 7.27186042 14.8337821 6.23665158zM8.86396103 6L7.86396103 7 3 7 3 6 8.86396103 6zM10.863961 4L9.86396103 5 3 5 3 4 10.863961 4zM6.86396103 8L5.86396103 9 3 9 3 8 6.86396103 8z"/>
  </g>
</svg>

<svg xmlns="http://www.w3.org/2000/svg" width="16" height="16" viewBox="0 0 16 16"><rect id="frame" width="16" height="16" fill="none"/><path fill="#AFB1B3" d="M13.108 7.962l-2.07-2.07L6 10.902v2.07h2.07l5.038-5.01zm1.726-1.725c.221-.222.221-.814 0-1.036l-1.035-1.035c-.222-.221-.814-.221-1.036 0l-1.035 1.035 2.07 2.07 1.036-1.034zM8.864 6l-1 1H3V6h5.864zm2-2l-1 1H3V4h7.864zm-4 4l-1 1H3V8h3.864z" fill-rule="evenodd"/></svg>
